!!! OTL: Berkowitz477
!!! Chapter: 1
!!! Section: IV
!!! Page: 119
!!! Mode: 
!!! Encoder: DJB
**kern
*staff1
*I"Piano
=1-
*clefC3
*k[b-e-]
*B-:
*M3/4
16B-\LL
16c\
16d\
16e-\JJ
16f\LL
16en\
16g\
16f\JJ
16e-\LL
16d\
16c\
16B-\JJ
=2
*M4/4
8A\L
8f\
8G\
8en\J
4f\
4F/
=3
*M3/4
16g\LL
16f\
16e-\
16d\JJ
16c\LL
16d\
16Bn\
16d\JJ
16c\LL
16d\
16e-\
16en\JJ
=4
16f\LL
16e-\
16d\
16c\JJ
16B-/LL
16c/
16A/
16c/JJ
4B-/
=5
!!linebreak:original
*M4/4
8.g\L
16f#\Jk
8g\L
8B-\J
8A\L
8c\
8e-\
8g\J
=6
8.f#\L
16e-\Jk
8f#\L
8d\J
4B-/
4A-/
=7
*M3/4
8G/L
16Bn/L
16d/JJ
8f\L
16e-\L
16c\JJ
8e-\L
8c\J
=8
*M4/4
8F/L
16A/L
16c/JJ
8e-\L
16d\L
16c\JJ
4d\
4En/
=9
!!linebreak:original
4F/
[4f\
16f\LL]
16en\
16g\
16f\JJ
16e-\LL
16d\
16c\
16B-\JJ
=10
8F\L
8B-\
8g\
8A\J
4B-/
4r
==
*-
